X: 391
Q: "Pomposo"
M: C
L: 1/8
K: Bb
V: 1
f2f>f !p!fbab | !f!{a}g2f>f !p!~f2df | g>ed>B e>gA>c | !f!B2B>B B2 :|
|: !f!A>B |\
c2c>c !p!(cde=e) | !f!f2f>f f>ga>b | b2b>b !p!(ba)(ag) | !f!f2f>f ~f2df |
!f!~g2!p!bg !f!~f2!p!bf |  !f!~e2!p!ge f<d~cB | !f!A>Bc>d (e<g)A>c | B2B>B B2 :|
V: 2 clef=bass middle=d
z2 |\
|: z2 |\
f>ga=b c'2c2 | f>ac'>a f2z2 | Bbab c'2c2 | f>FA>c f2z2 |
zegb zdfb | zbge B2z2 | f2=e2 f2F2 | B>bf>d B2 :|


